X:1
L:1/8
Q:1/8=80
M:4/4
K:Emin
""^maestoso"" E>C | B,2 E2 E2 G2 | F>GFE D2 B2 | B<AGF A<GFE | D4 B,2 E2 |""^5"" E2 F2 G2 A2 | 
 B>cBA G2 e2 | e>f g2 B2 g2 | f4 e2 e2 |""^9"" e>d B2 B2 e2 | d>edB G2 B2 | A>G E2 A2 G2 | 
 G2 F2 E2 D2 |""^13"" B2 G2 c2 A2 | d2 B2 e2 B2 | c<BAG B<AGF | E4- E2 || GA |""^17"" B2 B2 c2 B2 | 
 BAGF G2 d2 | e>f g2 B2 g2 | e>f g2 B2 g2 |""^21"" fg a2 d2 a2 | gfge gfge | dBde BABc | B4- B2 g2 | 
""^25"" gfdf g2 f2 | g2 f2 e2 dc | B2 cB A2 G2 | G2 F2 E2 D2 |""^29"" EFGA B2 e2 | DEFG A2 d2 | 
 B<ABG B<AGF | E4- E4 |]
